!!!OTL: 409b. Liebes-Plauderei.
!!!ARE: Europa, Mitteleuropa, Deutschland, Niederrhein
!!!SCT: E0409
!!!TXL: @@DE
!!!YEM: Copyright 1995, estate of Helmut Schaffrath.
**kern	**text
*ICvox	*
*M6/8	*
*k[f#]	*
*G:	*
{8d	Vor
=1	=1
8g	mei-
8g	-nes
8g	Herʒ-
8aL	-lieb-
8gJ	.
8a	-chens
=2	=2
4.b/	Fen-
4a}	-ſter,
{16bL	da
16ccJ	.
=3	=3
8ddL	iſt
8ccJ	.
8b	ein
8aL	kla-
8gJ	.
8a	-rer
=4	=4
4b	Sprung;
8r	.
4r}	.
{8b	hätt
=5	=5
8ddL	ich
8ccJ	.
8b	da-
8aL	-raus
8gJ	.
8a	ein
=6	=6
4g	Trün-
8e	-ke-
4d	-lein,
8d	ein
=7	=7
(4b/	Trünke-
8g)	.
4a;}	-lein,
{16bL	dann
16ccJ	.
=8	=8
8.dd	wür-
16cc	-de
8b	mein
8aL	Herʒ
8gJ	.
8a	ge-
=9	=9
[4.g	-ſund!
8g]	.
8r}	.
==	==
!!!AGN: Liebes - Lied, Abschied
!!!ONB: ESAC (Essen Associative Code) Database: ERK1
!!!AMT: compound duple
!!!AIN: vox
!!!EED: Helmut Schaffrath
!!!EEV: 1.0
!!!GTL: Liebeslieder [Alte (aus dem 13. bis 17. Jahrh.) mit ihrem jungen Nachwuchs]
!!!URL-scan: https://rosdok.uni-rostock.de/mcrviewer/recordIdentifier/rosdok_ppn745177662/iview2/phys_0226.iview2?x=-2131.6244019138758&y=-6.71387560851872&scale=0.23831242873432154&rotation=0&layout=singlePageLayout
!!!ENC: Anna Maria Matuszewska
!!!EEV: 2024/09/12
*-	*-
